X:3643
L:1/8
M:4/4
K:D
 FAAG EFGD | EAAE GE D2 | EAAF G/A/B/c/ dB | cABA GE D2 :| cded cBAG | Bdef gf/e/ dB | cded cBAG | 
 AcBA GE D2 | cded cBAG | Bc/d/ ef g2 ga/b/ | afge dfec | AcBA GE D2 ||

